images/time.svg

<?xml version="1.0" encoding="utf-8"?>
<!-- Generated by IcoMoon.io -->
<!DOCTYPE svg PUBLIC "-//W3C//DTD SVG 1.1//EN" "http://www.w3.org/Graphics/SVG/1.1/DTD/svg11.dtd">
<svg version="1.1" xmlns="http://www.w3.org/2000/svg" xmlns:xlink="http://www.w3.org/1999/xlink" width="30" height="30" viewBox="0 0 30 30">
<g>
	<line stroke-width="1" x1="" y1="" x2="" y2="" stroke="#449FDB" opacity=""></line>
</g>
	<path d="M7.371 0.688c0-0.38-0.309-0.688-0.688-0.688-0.381 0-0.689 0.308-0.689 0.688v2.319l1.377 0.062v-2.381z" fill="#000000"></path>
	<path d="M21 11.74v-7.419c0-0.726-0.588-1.283-1.312-1.283l-1.818 0.032v-2.382h-0.002c0-0.38-0.309-0.688-0.688-0.688-0.381 0-0.689 0.308-0.689 0.688v2.381h1.379v0.851c0 0.38-0.309 0.688-0.689 0.688s-0.688-0.309-0.688-0.688v-0.851h-9.122v0.851c0 0.38-0.309 0.688-0.688 0.688-0.381 0-0.689-0.309-0.689-0.688v-0.882h-1.665c-0.725 0-1.312 0.557-1.312 1.28v16.407c0 0.727 0.588 1.312 1.312 1.312h7.242c1.175 3.287 3.304 6.49 7.999 6.49 4.688 0 8.5-3.814 8.5-8.5-0.001-4.364-3.275-7.436-7.070-8.287zM9.371 11.296l-0.74-0.934 2.695-2.324h1.403v7.201c-0.345 0.502-0.809 1.045-1.040 1.617h-0.609v-5.365c0-0.706 0.018-1.266 0.051-1.679-0.096 0.1-0.213 0.211-0.354 0.332s-0.609 0.505-1.406 1.152zM19.569 27.528c-4.137 0-7.501-3.363-7.501-7.5 0-4.135 3.365-7.5 7.501-7.5s7.5 3.365 7.5 7.5c0 4.137-3.365 7.5-7.5 7.5z" fill="#000000"></path>
	<path d="M19.901 20.382c-0.186 0.186-0.482 0.186-0.666 0l-1.961-1.961c-0.191 0.201-0.354 0.686-0.482 0.916l1.961 1.961c0.449 0.449 1.18 0.449 1.631 0l1.961-1.963c-0.129-0.23-0.289-0.715-0.482-0.914l-1.962 1.961z" fill="#000000"></path>
</svg>

<?xml version="1.0" encoding="UTF-8" standalone="no"?>
<!-- Created with Inkscape (http://www.inkscape.org/) -->

<svg
   xmlns:dc="http://purl.org/dc/elements/1.1/"
   xmlns:cc="http://creativecommons.org/ns#"
   xmlns:rdf="http://www.w3.org/1999/02/22-rdf-syntax-ns#"
   xmlns:svg="http://www.w3.org/2000/svg"
   xmlns="http://www.w3.org/2000/svg"
   xmlns:inkscape="http://www.inkscape.org/namespaces/inkscape"
   version="1.1"
   width="30"
   height="30"
   viewBox="0 0 30 30"
   id="svg2">
  <metadata
     id="metadata10">
    <rdf:RDF>
      <cc:Work
         rdf:about="">
        <dc:format>image/svg+xml</dc:format>
        <dc:type
           rdf:resource="http://purl.org/dc/dcmitype/StillImage" />
      </cc:Work>
    </rdf:RDF>
  </metadata>
  <defs
     id="defs8" />
  <path
     d="M 7.37,0.688 C 7.37,0.308 7.063,0 6.684,0 6.304,0 5.994,0.308 5.994,0.688 v 2.32 l 1.378,0.06 V 0.69 z M 21,11.74 V 4.32 C 21,3.595 20.412,3.038 19.688,3.038 L 17.87,3.07 V 0.688 H 17.868 C 17.868,0.308 17.558,0 17.18,0 16.8,0 16.49,0.308 16.49,0.688 v 2.38 h 1.38 V 3.92 c 0,0.38 -0.31,0.688 -0.69,0.688 -0.38,0 -0.687,-0.31 -0.687,-0.688 V 3.07 H 7.37 v 0.85 c 0,0.38 -0.308,0.688 -0.687,0.688 -0.38,0 -0.69,-0.31 -0.69,-0.688 V 3.038 H 4.33 c -0.726,0 -1.313,0.557 -1.313,1.28 v 16.407 c 0,0.727 0.588,1.312 1.312,1.312 h 7.24 c 1.17,3.287 3.3,6.49 8,6.49 4.68,0 8.5,-3.814 8.5,-8.5 0,-4.364 -3.28,-7.436 -7.07,-8.287 z M 9.37,11.296 8.63,10.362 11.326,8.038 h 1.403 v 7.2 c -0.35,0.503 -0.81,1.046 -1.04,1.618 h -0.61 V 11.49 c 0,-0.705 0.01,-1.265 0.05,-1.678 -0.1,0.1 -0.22,0.21 -0.36,0.332 -0.14,0.122 -0.61,0.505 -1.41,1.152 z m 10.2,16.232 c -4.138,0 -7.502,-3.363 -7.502,-7.5 0,-4.135 3.365,-7.5 7.5,-7.5 4.135,0 7.5,3.365 7.5,7.5 0,4.137 -3.364,7.5 -7.5,7.5 z m 0.33,-7.146 c -0.185,0.186 -0.48,0.186 -0.665,0 l -1.96,-1.96 c -0.192,0.2 -0.355,0.685 -0.483,0.915 l 1.96,1.96 c 0.45,0.45 1.18,0.45 1.632,0 l 1.96,-1.962 c -0.128,-0.23 -0.288,-0.715 -0.48,-0.914 L 19.9,20.39 z"
     inkscape:connector-curvature="0"
     id="path4" />
</svg>
